icons/1_Primary/BitGo.svg

<svg xmlns="http://www.w3.org/2000/svg" viewBox="0 0 1024 1024">
   <circle cx="512" cy="512" r="512" style="fill:#009fe8"/>
   <path d="M494.54 491.64v-50.32c14 0 58.87-4.11 58.53 25.67-.34 28.41-44.49 25.01-58.53 24.65ZM494.2 517v55.45c16.77 0 69.82 3.77 70.16-27.38C564.71 512.51 511 517 494.2 517Zm236.5-195.09v98.19C730.71 693.23 512 767.5 512 767.5s-218.71-74.27-218.71-347.4v-98.23a20.21 20.21 0 0 1 18.82-20.19C351.82 300 445.94 291.75 512 256.5c66.06 35.25 160.18 43.47 199.88 45.18a20.21 20.21 0 0 1 18.83 20.19ZM578.4 497.8c14.72-6.85 24-19.85 21.9-41.76-2.74-29.78-28.07-40-60.58-43.13v-41.75H514.4v40.39h-20.54v-40.73h-25.33l.34 41.41c-5.48 0-50.66.34-50.66.34v26.35h32.17v133.15H422l-.34 30.46s40-.34 45.86 0v41.76h25v-41.42c6.85.34 13.69.34 20.19.34v41.07H538v-41.75c42.44-2.05 71.88-12.66 76-52.37 3.07-31.83-11.64-46.55-35.6-52.36Z" style="fill:#fff"/>
</svg>

<svg width="1024" height="1024" viewBox="0 0 1024 1024" fill="none" xmlns="http://www.w3.org/2000/svg">
<g clip-path="url(#clip0_2_1632)">
<path d="M512 1024C794.77 1024 1024 794.77 1024 512C1024 229.23 794.77 0 512 0C229.23 0 0 229.23 0 512C0 794.77 229.23 1024 512 1024Z" fill="#9ABEFF"/>
<path d="M494.54 491.64V441.32C508.54 441.32 553.41 437.21 553.07 466.99C552.73 495.4 508.58 492 494.54 491.64ZM494.2 517V572.45C510.97 572.45 564.02 576.22 564.36 545.07C564.71 512.51 511 517 494.2 517ZM730.7 321.91V420.1C730.71 693.23 512 767.5 512 767.5C512 767.5 293.29 693.23 293.29 420.1V321.87C293.283 316.746 295.223 311.81 298.717 308.062C302.211 304.314 306.998 302.032 312.11 301.68C351.82 300 445.94 291.75 512 256.5C578.06 291.75 672.18 299.97 711.88 301.68C716.994 302.03 721.784 304.31 725.28 308.059C728.776 311.807 730.717 316.744 730.71 321.87L730.7 321.91ZM578.4 497.8C593.12 490.95 602.4 477.95 600.3 456.04C597.56 426.26 572.23 416.04 539.72 412.91V371.16H514.4V411.55H493.86V370.82H468.53L468.87 412.23C463.39 412.23 418.21 412.57 418.21 412.57V438.92H450.38V572.07H422L421.66 602.53C421.66 602.53 461.66 602.19 467.52 602.53V644.29H492.52V602.87C499.37 603.21 506.21 603.21 512.71 603.21V644.28H538V602.53C580.44 600.48 609.88 589.87 614 550.16C617.07 518.33 602.36 503.61 578.4 497.8Z" fill="white"/>
</g>
<defs>
<clipPath id="clip0_2_1632">
<rect width="1024" height="1024" fill="white"/>
</clipPath>
</defs>
</svg>
